X:90
T:Tyrolese Waltz
S:John Moore's Book 2
Z:Transcribed by Edmund Spriggs 05/2021
%%VWML: Moore1-4494-p69-0
F:http://www.vwml.org/record/Moore2/4494/p69
M:3/4
N:The last three notes in bars 14 and 15 should be marked as triplets.
L:1/8
K:F
C2|F>F A>A c>c|a2f z1((3fef)|g2b z1((3ede)|f2a z1C2|
F>F A>A c>c|a2f z1((3fef)|(g2b) z1{f/}((3ede)|f4:|
|:f>f|(e2g) z1f>e|(f2a) z1g>f|(e2g) z1f>e|(f2a) z1C2|
F>F A>A c>c|a2f z1{g/}fef|g2bz1 f/}ed.e|f4:|

